X:223
T:In the Garden 
C:Traditional Russian
N:Transcribed by Andrea Chapman
R:bluegrass
L:1/8
Q:1/4=209
M:4/4
K:F
z8 | "Gm"B2 BG "D7"[A2_G2] AG | "Gm"[G2B,2] [G2B,2] G_G =GA | "Gm"[B2D2] BG "D7"[A2_G2] AG | 
"Gm"[G4B,4] "A7"[A3_D3]G | "Dm"[F2A,2] FD "A7"[E2_D2] ED | "Dm"[D2A,2] [D2A,2] DC DE | 
"Dm"[F2A,2] FD "A7"[E2_D2] ED | "Dm"[D2A,2] [D2A,2] z4 | "Gm"Bd cB "D7"Ac BA | 
"Gm"G2 D2 G2 A2 | "Gm"Bd cB Ac BA | "Gm"G2 GA "A7"cB AG | "Dm"FA GF "A7"EG FE | 
"Dm"[D2A,2] D2 z2 E2 | "Dm"FA GF "A7"EG FE | "Dm"[D4A,4] [D4A,4] | "Gm"Bd (3BdB Ac (3AcA | 
"Gm"G2 D2 G2 A2 | "Gm"Bd (3BdB "D7"Ac (3AcA | "Gm"G2 GA "A7"cB AG | "Dm"FA (3FAF "A7"EG (3EGE | 
"Dm"[D2A,2] D2 z2 E2 | "Dm"FA (3FAF "A7"EG (3EGE | "Dm"[D4A,4] [D4A,4] | "Gm"Bd GB "D7"Ad _GA | 
"Gm"Gd Bd GB Ad | "Gm"Bd GB Ad _GA | "Gm"Gd Bd "A7"GB dg | "Dm"fa df "A7"ea _de | 
"Dm"da fa df ea | "Dm"fa fd "A7"ef e_d | "Dm"d2 [f2d2] z4 | "Gm"Bd GB Ad _GA | 
"Gm"Gd B/c/d GB/A/ cd | "Gm"Bd GB "D7"Ad _GA | "Gm"Gd B/c/d "A7"GB dg | "Dm"fa df "A7"ea _de | 
"Dm"da f/g/a df/e/ ga | "Dm"fa fd "A7"fe f_d | "Dm"d2 [f2d2] z4 | "Gm"bd gb "D7"ad _ga | 
"Gm"gd _d=d ed _d=d | "Gm"bd gb ad _ga | "Gm"gd Bd "A7"bg dg | "Dm"fe df "A7"eA _de | 
"Dm"d_d =df d_d =de | "Dm"fe df "A7"eA _de | "Dm"d2 [f2d2] z4 | (3"Gm"gbg db (3faf da | 
"Gm"gd _d=d ed _d=d | (3"Gm"gbg db (3"D7"_gag da | "Gm"gd Bd "A7"bg dg | (3"Dm"faf df (3"A7"efe _de | 
"Dm"d_d =df d_d =de | (3"Dm"faf df (3"A7"efe _de | "Dm"d2 [d6F6D6] | 


